flaticon/productivity-and-development/medal.svg

<svg xmlns="http://www.w3.org/2000/svg" width="32" height="32" viewBox="0 0 24 24">
    <path d="M 12 12.40625 C 14.261719 12.40625 16.101562 10.566406 16.101562 8.304688 C 16.101562 6.042969 14.261719 4.203125 12 4.203125 C 9.738281 4.203125 7.898438 6.042969 7.898438 8.304688 C 7.898438 10.566406 9.738281 12.40625 12 12.40625 Z M 12 5.226562 C 13.699219 5.226562 15.078125 6.605469 15.078125 8.304688 C 15.078125 10.003906 13.699219 11.386719 12 11.386719 C 10.300781 11.386719 8.921875 10.003906 8.921875 8.304688 C 8.921875 6.605469 10.300781 5.226562 12 5.226562 Z M 12 5.226562"/>
    <path d="M 18.027344 13.820312 L 18.027344 10.800781 L 20.160156 8.664062 C 20.359375 8.464844 20.359375 8.144531 20.160156 7.945312 L 18.027344 5.808594 L 18.027344 2.789062 C 18.027344 2.507812 17.796875 2.277344 17.515625 2.277344 L 14.496094 2.277344 L 12.359375 0.144531 C 12.167969 -0.046875 11.832031 -0.046875 11.640625 0.144531 L 9.503906 2.277344 L 6.484375 2.277344 C 6.203125 2.277344 5.972656 2.507812 5.972656 2.789062 L 5.972656 5.808594 L 3.839844 7.945312 C 3.640625 8.144531 3.640625 8.464844 3.839844 8.664062 L 5.972656 10.800781 L 5.972656 13.820312 C 5.972656 14.101562 6.203125 14.332031 6.484375 14.332031 L 6.644531 14.332031 L 5.277344 22.679688 C 5.210938 23.078125 5.671875 23.441406 6.070312 23.183594 L 8.253906 21.703125 L 9.851562 23.800781 C 10.152344 24.179688 10.710938 23.964844 10.761719 23.574219 L 11.902344 16.605469 C 11.933594 16.613281 11.96875 16.613281 12 16.613281 C 12.03125 16.613281 12.066406 16.613281 12.097656 16.605469 L 13.238281 23.574219 C 13.316406 24.070312 13.957031 24.105469 14.148438 23.800781 L 15.746094 21.703125 L 17.929688 23.183594 C 18.417969 23.484375 18.804688 22.980469 18.722656 22.679688 L 17.355469 14.332031 L 17.515625 14.332031 C 17.796875 14.332031 18.027344 14.101562 18.027344 13.820312 Z M 4.921875 8.304688 L 6.847656 6.382812 C 6.941406 6.285156 6.996094 6.15625 6.996094 6.019531 L 6.996094 3.300781 L 9.714844 3.300781 C 9.851562 3.300781 9.980469 3.246094 10.078125 3.152344 L 12 1.226562 L 13.921875 3.152344 C 14.019531 3.246094 14.148438 3.300781 14.285156 3.300781 L 17.003906 3.300781 L 17.003906 6.019531 C 17.003906 6.15625 17.058594 6.285156 17.152344 6.382812 L 19.078125 8.304688 L 17.152344 10.226562 C 17.058594 10.324219 17.003906 10.453125 17.003906 10.589844 L 17.003906 13.308594 L 14.285156 13.308594 C 14.148438 13.308594 14.019531 13.363281 13.921875 13.457031 L 12 15.382812 L 10.078125 13.457031 C 9.980469 13.363281 9.851562 13.308594 9.714844 13.308594 L 6.996094 13.308594 L 6.996094 10.589844 C 6.996094 10.453125 6.941406 10.324219 6.847656 10.226562 Z M 9.945312 22.238281 L 8.773438 20.699219 C 8.671875 20.570312 8.519531 20.5 8.367188 20.5 C 8.265625 20.5 8.167969 20.527344 8.082031 20.585938 L 6.476562 21.671875 L 7.679688 14.332031 L 9.503906 14.332031 L 9.5625 14.390625 L 10.996094 15.820312 Z M 17.523438 21.671875 L 15.917969 20.585938 C 15.695312 20.4375 15.390625 20.484375 15.226562 20.699219 L 14.054688 22.238281 L 13.003906 15.820312 L 14.4375 14.386719 L 14.496094 14.332031 L 16.320312 14.332031 Z M 17.523438 21.671875"/>
</svg>

<svg xmlns="http://www.w3.org/2000/svg" width="32" height="32" viewBox="0 0 24 24">
    <path d="M12 12.406a4.106 4.106 0 0 0 4.102-4.101A4.106 4.106 0 0 0 12 4.203a4.106 4.106 0 0 0-4.102 4.102A4.106 4.106 0 0 0 12 12.406zm0-7.18a3.08 3.08 0 1 1-.002 6.159A3.08 3.08 0 0 1 12 5.227zm0 0"/>
    <path d="M18.027 13.82V10.8l2.133-2.136c.2-.2.2-.52 0-.719L18.027 5.81v-3.02a.513.513 0 0 0-.511-.512h-3.02L12.36.145a.522.522 0 0 0-.718 0L9.504 2.277h-3.02a.513.513 0 0 0-.511.512v3.02L3.84 7.945c-.2.2-.2.52 0 .72L5.973 10.8v3.02c0 .28.23.511.511.511h.16L5.278 22.68c-.066.398.395.761.793.504l2.184-1.48L9.852 23.8c.3.379.859.164.91-.227l1.14-6.969a.412.412 0 0 0 .098.008c.031 0 .066 0 .098-.008l1.14 6.97c.078.495.719.53.91.226l1.598-2.098 2.184 1.48c.488.301.875-.203.793-.503l-1.368-8.348h.16c.282 0 .512-.23.512-.512zM4.922 8.305l1.926-1.922a.525.525 0 0 0 .148-.363V3.3h2.719a.525.525 0 0 0 .363-.148L12 1.227l1.922 1.925a.525.525 0 0 0 .363.149h2.719V6.02c0 .136.055.265.148.363l1.926 1.922-1.926 1.922a.525.525 0 0 0-.148.363v2.719h-2.719a.525.525 0 0 0-.363.148L12 15.383l-1.922-1.926a.525.525 0 0 0-.363-.148H6.996v-2.72a.525.525 0 0 0-.148-.362zm5.023 13.933L8.773 20.7a.52.52 0 0 0-.691-.113l-1.605 1.086 1.203-7.34h1.824l.059.059 1.433 1.43zm7.578-.566l-1.605-1.086a.514.514 0 0 0-.691.113l-1.172 1.54-1.051-6.419 1.434-1.433.058-.055h1.824zm0 0"/>
</svg>
